X:1
T:Tmeisken was jonck
T:Heinrich Isaac
T:Tmeisken was jonck
C:Heinrich Isaac
%%score [ 1 2 3 4 ]
L:1/8
Q:1/4=100
M:2/2
K:F
V:1 treble nm="Soprano" snm="S"
V:2 treble nm="Alto" snm="A"
V:3 treble-8 nm="Tenor" snm="T"
V:4 bass nm="Bass" snm="B"
V:1
 G4 G2 G2 | G8 | G8 | B6 AG | F8 | A4 A4 | c6 B2 | A4 G4- | G4 ^F4 | G8 | z4 G4 | B4 B2 B2 | %12
w: Tmeis- kin was|jonck,|was|jonck, _ _|_|wel van|pas- *|se, niet|_ te|groet.|Ic|_ quam ghe-|
 B4 A4- | A4 d4- | d4 ^c4 | d6 c2 | B4 A4 | B6 AG | F2 B4 A2 | B2 G4 A2- | AGFE ^F4 | G8 | z4 D4 | %23
w: loe- pen|_ met|_ _|ee- nem|spronck. Ic|cu- ste _|se an ha-|ren roe- *|* * * * de|mont.|Scoen|
 E4 E4 | D3 E F2 G2- | G2 E4 A2 | F2 B4 A2- | A2 GF G4 | A4 z2 A2 | c6 B2 | A4 G2 A2- | %31
w: lief, ghy|compt _ _ _|_ zo _|sel- * *||den. Ey|rid- der,|seyt so e-|
 A2 c3 B A2- | A2 GF E4 | D8 | z4 D4 | F6 G2 | A2 B2 c4- | c2 B2 B4- | B4 A4 | B8 | z4 F4 | B4 A4 | %42
w: * * * del|_ _ _ ghe-|noet,|hu|lief- de|quelt _ _|_ my tot-|* ter|doet,|hu|lief- de|
 G4 G4 | c6 B2 | A2 B4 A2 | G2 B3 A G2- | G2 ^FE F4 | G8 |] %48
w: quelt hu|lief- de|quelt _ my|tot- * * *|* * * ter|doet.|
V:2
 z8 | z8 | z8 | D4 D2 D2 | D4 D4 | F6 ED | C8 | F2 F2 D4- | D2 D2 D2 D2 | B,6 C2 | D2 _E4 DC | %11
w: |||Tmeis- kin was|jonck, was|jonck, _ _|_|wel van pas-|* se, niet te|groet. _|_ _ _ _|
 D4 D4 | D2 E2 F4 | F4 A4 | A2 GF E2 A2 | F8 | z4 F4 | D4 B,4 | F4 F4 | D2 _E4 C2- | C2 D4 D2- | %21
w: * Ic|quam ghe- loe-|pen met|ee- * * * nem|spronck.|Ic|cu- ste|se an|ha- * ren|_ roe- de|
 D2 _E4 DC | B,2 C2 D4 | G,4 C4 | F,2 B,4 G,2- | G,2 C4 A,2- | A,2 G,2 D4- | D2 _E2 D4 | F4 F4 | %29
w: _ mont. _ _|_ _ Scoen|lief, ghy|compt _ zo|_ sel- den.|_ zo sel-|* den. Ey|rid- der,|
 F4 F4 | F2 F2 z2 F2- | F2 E4 F2- | F2 A2 A4 | F8- | F8 | D4 B,4 | C8 | z8 | F8 | D6 _EF | %40
w: seyt so|e- del seyt|_ so e-|* del ghe-|noet,|_||||hu|lief- * *|
 G2 F2 D4- | D4 F4 | _E4 E4 | C2 F2 D2 G2 | F2 G3 F F2 | D4 _E4 | D8 | D8 |] %48
w: * de quelt|_ my|tot- ter|doet, hu lief- *|de quelt _ my|tot- *|ter|doet.|
V:3
 z8 | G4 G2 G2 | G8 | G8 | B6 AG | F8 | A4 A4 | c6 B2 | A4 A4 | G8- | G8 | z4 G4 | B2 B2 c4 | %13
w: |Tmeis- kin was|jonck,|was|jonck, _ _|_|wel van|pas- se,|niet te|groet.|_|Ic|quam ghe- loe-|
 d4 f4 | e4 e4 | d8- | d8 | z4 d4 | d4 c2 c2 | B4 c2 c2 | A4 A4 | G8- | G8 | z4 G4 | B4 B4 | %25
w: pen met|ee- nem|spronck.|_|Ic|cu- ste se|an ha- ren|roe- de|mont.|_|Scoen|lief, ghy|
 c4 c4 | d6 c2 | B8 | A8 | z4 A4 | c4 c4 | c4 c4 | c4 c2 c2 | d8- | d8 | z4 d4 | f6 e2 | d4 B4 | %38
w: compt zo|sel- *||den.|Ey|rid- der,|seyt so|e- del ghe-|noet,|_|hu|lief- de|quelt my|
 c4 c4 | B8- | B8 | z4 F2 F2 | B4 B4 | A4 G4 | d6 c2 | B4 c4 | A8 | G8 |] %48
w: tot- ter|doet,|_|tot- ter|doet, hu|lief- de|quelt my|tot- *|ter|doet.|
V:4
 G,,6 A,,2 | B,,2 C,4 B,,2 | C,6 B,,A,, | G,,8 | z8 | D,6 C,B,, | A,,4 F,4- | F,2 E,2 G,4 | %8
w: Tmeis- *|* kin was|jonck, _ _|_||wel van _|pas- *|* * se,|
 D,4 D,4 | _E,6 D,C, | =B,,2 C,4 _B,,A,, | G,,4 G,4- | G,4 F,4 | D,8 | A,8 | B,6 A,2 | G,4 F,4 | %17
w: niet te|groet. _ _|_ Ic quam _|ghe- loe-|* pen|met|_|ee- nem|spronck. Ic|
 G,6 F,E, | D,3 B,, F,4 | G,2 _E,4 F,2- | F,E,D,C, D,4 | B,,2 C,2- C,D, _E,2- | E,2 D,C, =B,,4 | %23
w: cu- ste _|se an ha-|* ren roe-|* * * * de|mont. _ _ _ _|_ _ _ _|
 C,4 C,4 | B,,3 C, D,2 _E,2- | E,2 C,4 F,2 | D,2 G,3 D, F,2 | G,2 _E,2 G,4 | D,4 F,4 | F,4 F,4 | %30
w: * Scoen|lief, _ _ ghy|_ compt zo|sel- * * *|* * den.|Ey rid-|der, seyt|
 F,4 E,2 F,2- | F,2 A,3 G, F,2- | F,2 E,D, A,4 | B,8- | B,8 | B,6 A,G, | F,8 | G,8 | F,8 | %39
w: so _ e-|* * * del|_ _ _ ghe-|noet,|_|hu _ _|lief-||de|
 B,,6 C,D, | _E,2 D,3 C,B,,A,, | G,,4 D,4 | _E,8 | F,4 G,4 | D,2 G,3 D, F,2 | G,4 C,4 | D,8 | %47
w: quelt _ _|_ my _ _ _|_ hu|lief-|de _|quelt _ _ my|tot- *|ter|
 G,,8 |] %48
w: doet.|

